X:1
T:Title
%%score { 1 | ( 2 3 ) }
L:1/8
Q:1/4=100
M:3/4
K:Ab
V:1 treble nm="Grand Piano"
V:2 bass 
V:3 bass 
V:1
 [CE]3 [DF] [CE]2 | [EA]3 [DG] [CA]2 | [DB]2 [FA]2 [DF]2 | [CE]4 z2 | [EA]3 [EG] [EA]2 | B3 A B2 | %6
w: W.~J.~Kirkpatrick * *||||||
 c2 B2 A2 | B4 z2 | c2 c2 c2 | e3 d c2 | B2 B2 B2 | d3 c B2 | A2 .[C=EG]2 [A,F]2 | %13
w: |||||||
[M:7/8] [A,CE]2 [EA]2 [Ac]3 | %14
w: |
[M:3/4] [DFB]2 [CEA]2 [B,EG]2[Q:1/4=98][Q:1/4=97][Q:1/4=95][Q:1/4=94][Q:1/4=92][Q:1/4=91][Q:1/4=89][Q:1/4=88][Q:1/4=86][Q:1/4=84][Q:1/4=83][Q:1/4=81][Q:1/4=80][Q:1/4=78][Q:1/4=77] | %15
w: |
 [CEA]4 z2 |] %16
w: |
V:2
 [A,,A,]3 [A,,A,] [A,,A,]2 | [C,E,]3 [B,,E,] [A,,E,]2 | [D,F,]2 [D,A,]2 [D,A,]2 | [A,,A,]4 z2 | %4
 [C,A,]3 [C,E,] [C,A,]2 | [E,G,E]3 [E,F,E] [E,G,E]2 | [A,E]2 [G,B,E]2 [F,B,=D]2 | [E,G,E]4 z2 | %8
 [A,E]2 [A,E]2 [A,E]2 | [A,CE]3 [A,B,E] [A,E]2 | [E,G,E]2 [E,G,E]2 [E,G,E]2 | %11
 [E,B,E]3 [E,A,E] [E,G,E]2 | [F,A,C]2 z B, D,2 |[M:7/8] z2 C2 E3 |[M:3/4] D,2 E,2 E,2 | A,,4 z2 |] %16
V:3
 x6 | x6 | x6 | x6 | x6 | x6 | x6 | x6 | x6 | x6 | x6 | x6 | z2 C,2 z2 | %13
[M:7/8] A,,-A,,-A,,- A,,- A,,3 |[M:3/4] x6 | x6 |] %16

